X:1034
T:Dutchess of Gordon's Strathspey.
M:C
L:1/8
Q:1/4=120
I: :: ||
Z:Jack Campin * www.campin.me.uk * 2009
K:D
B|A<DA>F A<DD>d|A<DA>F E<GG>B|A<FA>d B>dA>B|A<FA>g f<dd :|
f|d<AF<A D<Ad>B|A<DA>F E<ee>f|d<AFA  EA`Df |d<BA>F A<dd>f|
  dA`FA  D<Ad>B|A<DAF  E>gfe |fg`ef  d>BA>F|A>Bd>e f<dd |]

